src/assets/icons/Home.svg

<svg width="27" height="24" viewBox="0 0 27 24" fill="none" xmlns="http://www.w3.org/2000/svg">
<path d="M26.9859 11.9766C26.9859 12.8203 26.2828 13.4813 25.4859 13.4813H23.9859L24.0187 20.9906C24.0187 21.1172 24.0094 21.2437 23.9953 21.3703V22.1297C23.9953 23.1656 23.1562 24.0047 22.1203 24.0047H21.3703C21.3187 24.0047 21.2672 24.0047 21.2156 24C21.15 24.0047 21.0844 24.0047 21.0187 24.0047L19.4953 24H18.3703C17.3344 24 16.4953 23.1609 16.4953 22.125V18C16.4953 17.1703 15.825 16.5 14.9953 16.5H11.9953C11.1656 16.5 10.4953 17.1703 10.4953 18V22.125C10.4953 23.1609 9.65625 24 8.62031 24H6C5.92969 24 5.85937 23.9953 5.78906 23.9906C5.73281 23.9953 5.67656 24 5.62031 24H4.87031C3.83437 24 2.99531 23.1609 2.99531 22.125V16.875C2.99531 16.8328 2.99531 16.7859 3 16.7438V13.4766H1.5C0.65625 13.4766 0 12.8203 0 11.9719C0 11.55 0.140625 11.175 0.46875 10.8469L12.4828 0.375C12.8109 0.046875 13.1859 0 13.5141 0C13.8422 0 14.2172 0.09375 14.4984 0.328125L26.4703 10.8516C26.8453 11.1797 27.0328 11.5547 26.9859 11.9766Z" fill="black"/>
</svg>

<svg xmlns="http://www.w3.org/2000/svg" width="27" height="24" fill="none" viewBox="0 0 27 24"><path fill="#000" d="M26.986 11.977c0 .843-.703 1.504-1.5 1.504h-1.5l.033 7.51q-.002.19-.024.38v.759a1.874 1.874 0 0 1-1.875 1.875h-.75q-.077.001-.154-.005-.1.006-.197.005L19.495 24H18.37a1.875 1.875 0 0 1-1.875-1.875V18c0-.83-.67-1.5-1.5-1.5h-3c-.83 0-1.5.67-1.5 1.5v4.125A1.874 1.874 0 0 1 8.62 24H6q-.105-.001-.21-.01-.085.009-.17.01h-.75a1.875 1.875 0 0 1-1.875-1.875v-5.25c0-.042 0-.09.005-.131v-3.267H1.5c-.844 0-1.5-.657-1.5-1.505 0-.422.14-.797.469-1.125L12.483.375C12.81.047 13.186 0 13.514 0s.703.094.984.328L26.47 10.852c.375.328.563.703.516 1.125"/></svg>
